X:1
T:Title
%%score { ( 1 3 ) | ( 2 4 ) }
L:1/8
Q:1/4=128
M:2/2
K:Ab
V:1 treble nm="Grand Piano"
V:3 treble 
V:2 bass 
V:4 bass 
V:1
 [CE]2 [CE]2 [_C=D]2 [=CE]2 | [DF]4 [CE]4 | [Ec]2 [CA]2 [DG]2 [EA]2 | F8 | F2 F2 =E2 F2 | %5
w: Geo.~C.~Stebbins * * *|||||
 [EG]4 [DF]4 | [Fd]2 [DF]2 [DG]2 [DF]2 | [CE]8 | [CE]2 [CE]2 [_C=D]2 [=CE]2 | [DF]4 [CE]4 | %10
w: |||||
 [Ec]2 [CEA]2 [E_GB]2 [A,GA]2 | [Fd]8 | [Fd]2 [DF]2 [DG]2 [CA]2 | [Ee]4 A4 | c2 B2 B2 E2 | [CA]8 | %16
w: ||||||
 c2 e2 e3 f | e4 c4 | [CE]2 [Ec]2 [Ec]3 [Fd] | [Ec]4 [CA]4 | [Ec]2 [EB]2 [Ge]2 [DGB]2 | %21
w: |||||
 [DEB]2 [CEA]2 [Ec]2 [CEA]2 | [B,=DF]4 [DAB]4 |[M:9/8] G3- G- [Ge]2- [Ge-]/e/ z z | %24
w: |||
[M:4/4] [Ec]2 [CE]2 [_C=D]2 [=CE]2 | [DF]4 [CE]4 | [Ec]2 [CA]2 [DG]2 [EA]2 | [DB]4 [DF]4 | %28
w: ||||
 [Fd]2 [DF]2 [DG]2 [CA]2 | [Ee]4 A4 | c2 B2 B2 e2 | [CA]6 z2 |] %32
w: ||||
V:2
 [A,,A,]2 [A,,A,]2 [A,,A,]2 [A,,A,]2 | [A,,A,]4 [A,,A,]4 | [A,,A,]2 [A,,E,]2 [B,,E,]2 [C,A,]2 | %3
 [D,A,D]8 | [D,A,D]2 [D,A,D]2 [D,G,D]2 [D,A,D]2 | [D,D]4 [D,A,]4 | %6
 [B,,B,]2 [B,,B,]2 [E,B,]2 [E,G,]2 | [A,,A,]8 | [A,,A,]2 [A,,A,]2 [A,,A,]2 [A,,A,]2 | %9
 [A,,A,]4 [A,,A,]4 | [A,,A,]2 A,,2 C,2 C,2 | [D,A,]8 | [B,,B,]2 [B,,B,]2 [E,B,]2 [F,A,]2 | %13
 [C,A,]4 [F,A,C]4 | [E,G,E]2 [E,G,D]2 [E,G,D]2 [E,B,D]2 | [A,,A,]8 | %16
 [A,E]2 [A,CA]2 [A,CA]3 [A,DA] | [A,CA]4[K:bass] [A,E]4 | [A,,A,]2 [A,,A,]2 [A,,A,]3 [A,,A,] | %19
 [A,,A,]4 [A,,A,]4 | [E,A,]2 [E,G,]2 [E,B,]2 D,2 | A,,2 A,,2 [A,,A,]2 A,,2 | B,,4 B,,4 | %23
[M:9/8] z3 z B,2- B, z z |[M:4/4] [A,,A,]2 [A,,A,]2 [A,,A,]2 [A,,A,]2 | [A,,A,]4 [A,,A,]4 | %26
 [A,,A,]2 [A,,E,]2 [B,,E,]2 [C,A,]2 | [D,F,]4 [D,B,]4 | [B,,B,]2 [B,,B,]2 [E,B,]2 [F,A,]2 | %29
 [C,A,]4 [F,A,C]4 | [E,G,E]2 [E,G,D]2 [E,G,D]2 [E,G,D]2 | [A,,A,]6 z2 |] %32
V:3
 x8 | x8 | x8 | x8 | x8 | x8 | x8 | x8 | x8 | x8 | x8 | x8 | x8 | x8 | x8 | x8 | x8 | x8 | x8 | %19
 x8 | x8 | x8 | x8 |[M:9/8] .[EB]6 z3 |[M:4/4] x8 | x8 | x8 | x8 | x8 | x8 | x8 | x8 |] %32
V:4
 x8 | x8 | x8 | x8 | x8 | x8 | x8 | x8 | x8 | x8 | x8 | x8 | x8 | x8 | x8 | x8 | x8 | %17
 x4[K:bass] x4 | x8 | x8 | x8 | x8 | x8 |[M:9/8] E,6- E,/ z/ z z |[M:4/4] x8 | x8 | x8 | x8 | x8 | %29
 x8 | x8 | x8 |] %32

